dashboard/assets/pic-72-dab4640c78a9ca3c.svg

<svg xmlns="http://www.w3.org/2000/svg" viewBox="0 0 28.04 28.04"><g data-name="图层 2"><path d="M28 13.76h-2.35A11.65 11.65 0 0014.29 2.39V0h-.53v2.39A11.65 11.65 0 002.39 13.76H0v.53h2.39a11.65 11.65 0 0011.37 11.36V28h.53v-2.35a11.65 11.65 0 0011.36-11.36H28zm-5.89-7.83a11.41 11.41 0 013.35 7.83h-.62A10.82 10.82 0 0014.29 3.2v-.62a11.41 11.41 0 017.82 3.35zM14 17.23A3.21 3.21 0 1117.23 14 3.21 3.21 0 0114 17.23zm-.26-6.93a3.74 3.74 0 00-3.46 3.46h-6a9.74 9.74 0 019.5-9.5zm-3.46 4a3.74 3.74 0 003.46 3.46v6a9.76 9.76 0 01-9.5-9.5zm4 3.46a3.74 3.74 0 003.46-3.46h6a9.78 9.78 0 01-9.5 9.5zm3.46-4a3.74 3.74 0 00-3.46-3.46v-6a9.76 9.76 0 019.5 9.5zM5.93 5.93a11.45 11.45 0 017.83-3.35v.62A10.83 10.83 0 003.2 13.76h-.62a11.41 11.41 0 013.35-7.83zm0 16.18a11.41 11.41 0 01-3.35-7.82h.62a10.81 10.81 0 0010.56 10.55v.62a11.41 11.41 0 01-7.83-3.35zm16.18 0a11.37 11.37 0 01-7.82 3.35v-.62a10.81 10.81 0 0010.55-10.55h.62a11.37 11.37 0 01-3.35 7.82z" fill="#375d81" data-name="Layer 1"/></g></svg>

<svg xmlns="http://www.w3.org/2000/svg" viewBox="0 0 28.04 28.04"><defs><style>.cls-1{fill:#375d81;}</style></defs><title>资源 7</title><g id="图层_2" data-name="图层 2"><g id="Layer_1" data-name="Layer 1"><path class="cls-1" d="M28,13.76H25.65A11.65,11.65,0,0,0,14.29,2.39V0h-.53V2.39A11.65,11.65,0,0,0,2.39,13.76H0v.53H2.39A11.65,11.65,0,0,0,13.76,25.65V28h.53V25.65A11.65,11.65,0,0,0,25.65,14.29H28ZM22.11,5.93a11.41,11.41,0,0,1,3.35,7.83h-.62A10.82,10.82,0,0,0,14.29,3.2V2.58A11.41,11.41,0,0,1,22.11,5.93ZM14,17.23A3.21,3.21,0,1,1,17.23,14,3.21,3.21,0,0,1,14,17.23Zm-.26-6.93a3.74,3.74,0,0,0-3.46,3.46h-6a9.74,9.74,0,0,1,9.5-9.5Zm-3.46,4a3.74,3.74,0,0,0,3.46,3.46v6a9.76,9.76,0,0,1-9.5-9.5Zm4,3.46a3.74,3.74,0,0,0,3.46-3.46h6a9.78,9.78,0,0,1-9.5,9.5Zm3.46-4a3.74,3.74,0,0,0-3.46-3.46v-6a9.76,9.76,0,0,1,9.5,9.5ZM5.93,5.93a11.45,11.45,0,0,1,7.83-3.35V3.2A10.83,10.83,0,0,0,3.2,13.76H2.58A11.41,11.41,0,0,1,5.93,5.93Zm0,16.18a11.41,11.41,0,0,1-3.35-7.82H3.2A10.81,10.81,0,0,0,13.76,24.84v.62A11.41,11.41,0,0,1,5.93,22.11Zm16.18,0a11.37,11.37,0,0,1-7.82,3.35v-.62A10.81,10.81,0,0,0,24.84,14.29h.62A11.37,11.37,0,0,1,22.11,22.11Z"/></g></g></svg>
